X: 84
M:2/4
L:1/16
K:Bb
((3uFGA)|vB2vFuE DB,DF|GEGB AFAc|dBec fdcB|AcBG F2vGuA|
vB2vFuE DB,DF|GEGB AFAc|Bbag fedc|B2B2B2:|
|:((3ufga)|bfdB Aceg|fdcB BAGF|edec dcdB|AcBG F2(uG"4"_A)|


